X:43
T:The Charter Oak Brigade
C:Roy Watrous, 1992
S:The Watrous Book, 1992
M:2/4
L:1/16
Q:1/4=90
K:D
%%MIDI program 72
%%MIDI transpose 8
%%MIDI ratio 3 1
{ABc}d2f2 a2f2|g2b2 B2d2|cdef gbag|fefg a2Tf2|d2f2 a2f2|
g2b2 B2d2|cdef gbag|Tf2d2 d4||e2ef g2e2|f2fg a2f2|edef gbag|
f2fg a4|e2ef g2e2|f2fg a2f2|edef gbag|f2fe d4||a4-a2f2|
d4-d2f2|edef gbag|f2fg a4|a4-a2f2|d4-d2f2|edef gbag|
f2fe d4||{gf}eAfA edcd|eAfA edcd|edef gagf|edcB A4|
{gf}eAfA edcd|eAfA edcd|edef gbag|f2fe d4|]
